svgs/xed_editor.svg

<svg width="192" height="192" viewBox="0 0 192 192" fill="none" xmlns="http://www.w3.org/2000/svg">
<path d="M170 96L123.444 96M96 170L96 123.444M96 22L96 68.5563M68.5563 96H96M68.5563 96L35.8653 128.691M68.5563 96L35.8653 63.3089M68.5563 96H22M123.444 96H96M123.444 96L156.135 63.3089M123.444 96L156.135 128.691M96 96V123.444M96 96V68.5563M96 68.5563L63.3089 35.8653M96 68.5563L128.691 35.8653M96 123.444L128.691 156.135M96 123.444L63.3089 156.135" stroke="black" stroke-width="12" stroke-linecap="round" stroke-linejoin="round"/>
</svg>

<svg xmlns="http://www.w3.org/2000/svg" width="192" height="192" fill="none" viewBox="0 0 192 192"><path stroke="#000" stroke-linecap="round" stroke-linejoin="round" stroke-width="12" d="M170 96h-46.556M96 170v-46.556M96 22v46.556M68.556 96H96m-27.444 0-32.69 32.691M68.555 96l-32.69-32.691M68.555 96H22m101.444 0H96m27.444 0 32.691-32.691M123.444 96l32.691 32.691M96 96v27.444M96 96V68.556m0 0-32.691-32.69M96 68.555l32.691-32.69M96 123.443l32.691 32.691M96 123.444l-32.691 32.691"/></svg>
